X: 11719
T: El Redondo Encantado
R: waltz
M: 3/4
K: Dmajor
ABAG|:"D"F2 A2 d2|f2 ~e2 d2|"A"g2 c4-|c2 c2 d2|e2 ~d2 c2|B2 A2 G2|"D" FG A4-|A4 ABAG|
F2 A2 d2|"D7"f2 g2 a2|"G" b2 g4-|g2 gabg|"D" fa f2 d2|"A"eg c2 e2|"D"d3 d "A"d2|1 "D" d2 ABAG:|2 d2 c2 d2||
K: A major
"A"efedcd|efedce|"E"d2 B4-|B2 d2 c2|B2 c2 d2|e2 f2 ^g2|"A" b2 a2 ed|c2 c2 d2|
efedcd|efedce|"E" d2 B4-|B2 d2 c2|B2 c2 d2|e2 f2 ^g2|"A" a4"E" e2|"A" a2 c2 d2|
efedcd|efedce|"E" d2 B4-|B2 d2 c2|B2 c2 d2|e2 f2 ^g2|"A" b2 a2 ed|c2 c2 d2|
"F#" efedcd|efedce|"Bm" d2 B4-|B2 d2 c2|"E" B2 c2 d2|e2 f2 ^g2|"A" a4 "E" e2|"A" a2 ABA=G||

